packages/core/src/svgs/nett.svg

<svg width="24" height="24" viewBox="0 0 24 24" fill="none" xmlns="http://www.w3.org/2000/svg">
<g clip-path="url(#clip0_31_14707)">
<path d="M0 0H24V24H0V0Z" fill="#1C4B9B"/>
<path d="M8.57997 12L4.41425 17.1771C4.26854 17.0914 4.28139 16.8514 4.30282 16.74L5.33568 12H8.57997Z" fill="url(#paint0_linear_31_14707)"/>
<path d="M11.5499 14.1214L8.5842 12L4.40991 17.1857C4.5042 17.3014 4.73991 17.2714 4.84277 17.2371L11.5499 14.1214Z" fill="url(#paint1_linear_31_14707)"/>
<path d="M8.5844 12.0001H5.33154C5.7944 10.3544 6.73297 7.02867 6.78011 6.88295C6.82297 6.74153 6.9644 6.63438 7.03297 6.6001L8.5844 12.0001Z" fill="#54CCFF"/>
<path d="M7.49999 6.60428C7.31999 6.48428 7.11428 6.55285 7.02856 6.60428L8.58857 12.0043L15.57 12.4286C12.9557 10.56 7.68428 6.72856 7.49999 6.60428Z" fill="#A2AFFE"/>
<path d="M11.5544 14.1343L8.58008 12L11.8801 12.1757L11.5544 14.1343Z" fill="#3189F7"/>
<path d="M15.5615 12.4288L11.8758 12.1631L11.5415 14.1217L16.8429 17.3445C16.9586 17.4217 17.2115 17.5717 17.3229 17.5717C17.4386 17.5717 17.5544 17.5417 17.6015 17.5288L15.5572 12.4288H15.5615Z" fill="url(#paint2_linear_31_14707)"/>
<path d="M18.6215 12.3516H15.4929L17.5929 17.5287C17.8586 17.4687 18.0129 17.1944 18.0472 17.0701L18.6215 12.3558V12.3516Z" fill="url(#paint3_linear_31_14707)"/>
<path d="M15.5229 12.4288L12.2229 10.0245L18.5658 6.54021C18.6215 6.48021 18.7972 6.38164 19.0458 6.45449C19.2943 6.52735 19.3029 6.82306 19.2772 6.96021L18.6086 12.4288H15.5229Z" fill="url(#paint4_linear_31_14707)"/>
</g>
<defs>
<linearGradient id="paint0_linear_31_14707" x1="6.43282" y1="12.0043" x2="6.43282" y2="17.1771" gradientUnits="userSpaceOnUse">
<stop stop-color="#38C2FF"/>
<stop offset="1" stop-color="#2698EE"/>
</linearGradient>
<linearGradient id="paint1_linear_31_14707" x1="7.97991" y1="12" x2="7.97991" y2="17.2671" gradientUnits="userSpaceOnUse">
<stop stop-color="#4196FF"/>
<stop offset="1" stop-color="#2588FD"/>
</linearGradient>
<linearGradient id="paint2_linear_31_14707" x1="14.5715" y1="12.1631" x2="13.5686" y2="15.8188" gradientUnits="userSpaceOnUse">
<stop stop-color="#4583FC"/>
<stop offset="1" stop-color="#307EFA"/>
</linearGradient>
<linearGradient id="paint3_linear_31_14707" x1="17.0915" y1="12.3516" x2="17.0915" y2="17.5116" gradientUnits="userSpaceOnUse">
<stop stop-color="#718CFD"/>
<stop offset="1" stop-color="#5A86FF"/>
</linearGradient>
<linearGradient id="paint4_linear_31_14707" x1="18.93" y1="6.81449" x2="15.9558" y2="12.4459" gradientUnits="userSpaceOnUse">
<stop stop-color="#A796F6"/>
<stop offset="1" stop-color="#999FFF"/>
</linearGradient>
<clipPath id="clip0_31_14707">
<rect width="24" height="24" fill="white"/>
</clipPath>
</defs>
</svg>

<svg xmlns="http://www.w3.org/2000/svg" width="24" height="24" fill="none" viewBox="0 0 24 24"><g clip-path="url(#a)"><path fill="#1C4B9B" d="M0 0h24v24H0z"/><path fill="url(#b)" d="m8.58 12-4.166 5.177c-.145-.086-.133-.326-.111-.437L5.336 12z"/><path fill="url(#c)" d="M11.55 14.121 8.584 12 4.41 17.186c.094.115.33.085.433.051z"/><path fill="#54CCFF" d="M8.584 12H5.332c.462-1.646 1.401-4.971 1.448-5.117a.54.54 0 0 1 .253-.283z"/><path fill="#A2AFFE" d="M7.5 6.604c-.18-.12-.386-.051-.471 0l1.56 5.4 6.981.425c-2.614-1.869-7.886-5.7-8.07-5.825"/><path fill="#3189F7" d="M11.554 14.134 8.58 12l3.3.176z"/><path fill="url(#d)" d="m15.562 12.429-3.686-.266-.335 1.959 5.302 3.223c.116.077.369.227.48.227.116 0 .231-.03.279-.043l-2.045-5.1z"/><path fill="url(#e)" d="M18.622 12.352h-3.13l2.1 5.177c.267-.06.42-.335.455-.459l.575-4.714z"/><path fill="url(#f)" d="m15.523 12.429-3.3-2.405 6.343-3.484c.056-.06.231-.158.48-.086s.257.37.231.506l-.668 5.469z"/></g><defs><linearGradient id="b" x1="6.433" x2="6.433" y1="12.004" y2="17.177" gradientUnits="userSpaceOnUse"><stop stop-color="#38C2FF"/><stop offset="1" stop-color="#2698EE"/></linearGradient><linearGradient id="c" x1="7.98" x2="7.98" y1="12" y2="17.267" gradientUnits="userSpaceOnUse"><stop stop-color="#4196FF"/><stop offset="1" stop-color="#2588FD"/></linearGradient><linearGradient id="d" x1="14.572" x2="13.569" y1="12.163" y2="15.819" gradientUnits="userSpaceOnUse"><stop stop-color="#4583FC"/><stop offset="1" stop-color="#307EFA"/></linearGradient><linearGradient id="e" x1="17.091" x2="17.091" y1="12.352" y2="17.512" gradientUnits="userSpaceOnUse"><stop stop-color="#718CFD"/><stop offset="1" stop-color="#5A86FF"/></linearGradient><linearGradient id="f" x1="18.93" x2="15.956" y1="6.814" y2="12.446" gradientUnits="userSpaceOnUse"><stop stop-color="#A796F6"/><stop offset="1" stop-color="#999FFF"/></linearGradient><clipPath id="a"><path fill="#fff" d="M0 0h24v24H0z"/></clipPath></defs></svg>
